static/cards/FrenchDeck/default/card_spades_04.svg

<svg width="219" height="304" viewBox="0 0 219 304" fill="none" xmlns="http://www.w3.org/2000/svg">
<g filter="url(#filter0_d_18_638)">
<g clip-path="url(#clip0_18_638)">
<rect x="8" y="4" width="203" height="288" rx="10" fill="white"/>
<path d="M28.4634 42.3784V38.3145H17.9331C16.3716 38.3145 15.3306 37.4937 15.3306 36.1724C15.3306 35.4316 15.5708 34.731 16.2715 33.4497C19.1343 28.3848 20.936 25.502 25.4805 18.6953C26.6616 16.9536 27.5825 16.353 28.9639 16.353C30.7856 16.353 31.8066 17.394 31.8066 19.2559V35.2515H33.8887C35.0098 35.2515 35.6704 35.812 35.6704 36.793C35.6704 37.7539 35.0298 38.3145 33.8887 38.3145H31.8066V42.3784C31.8066 43.5396 31.2061 44.2002 30.125 44.2002C29.064 44.2002 28.4634 43.5396 28.4634 42.3784ZM18.6938 35.2515H28.4634V19.7563H28.2832C24.8799 24.7812 21.3164 30.5068 18.6938 35.0513V35.2515Z" fill="#211C1D"/>
<path d="M24.2375 72C24.0275 72 23.8572 71.8365 23.8572 71.6348C23.8572 71.2053 24.9342 68.3825 25.1943 66.4832C25.2256 66.2548 24.9357 66.1637 24.8047 66.3495C24.177 67.2399 23.5441 68.1922 21.8225 68.2149C18.615 68.2572 16.7672 65.2101 17.7761 62.4373C18.2708 61.0778 25.0754 52 26 52C26.9245 52 33.7292 61.0778 34.2239 62.4373C35.2328 65.2101 33.385 68.2572 30.1775 68.2149C28.4559 68.1922 27.823 67.2399 27.1953 66.3495C27.0643 66.1637 26.7744 66.2548 26.8057 66.4832C27.0658 68.3825 28.1428 71.2053 28.1428 71.6348C28.1428 71.8365 27.9725 72 27.7625 72H24.2375Z" fill="#211C1D"/>
<path d="M190.537 253.622L190.537 257.686L201.067 257.686C202.628 257.686 203.669 258.506 203.669 259.828C203.669 260.568 203.429 261.269 202.729 262.55C199.866 267.615 198.064 270.498 193.52 277.305C192.338 279.046 191.417 279.647 190.036 279.647C188.214 279.647 187.193 278.606 187.193 276.744L187.193 260.749L185.111 260.749C183.99 260.749 183.33 260.188 183.33 259.207C183.33 258.246 183.97 257.686 185.111 257.686L187.193 257.686L187.193 253.622C187.193 252.46 187.794 251.8 188.875 251.8C189.936 251.8 190.537 252.46 190.537 253.622ZM200.306 260.749L190.537 260.749L190.537 276.244L190.717 276.244C194.12 271.219 197.684 265.493 200.306 260.949L200.306 260.749Z" fill="#211C1D"/>
<path d="M194.762 224C194.973 224 195.143 224.164 195.143 224.365C195.143 224.795 194.066 227.617 193.806 229.517C193.774 229.745 194.064 229.836 194.195 229.65C194.823 228.76 195.456 227.808 197.178 227.785C200.385 227.743 202.233 230.79 201.224 233.563C200.729 234.922 193.925 244 193 244C192.075 244 185.271 234.922 184.776 233.563C183.767 230.79 185.615 227.743 188.823 227.785C190.544 227.808 191.177 228.76 191.805 229.65C191.936 229.836 192.226 229.745 192.194 229.517C191.934 227.617 190.857 224.795 190.857 224.365C190.857 224.164 191.027 224 191.238 224L194.762 224Z" fill="#211C1D"/>
<path d="M61.353 76C60.8588 76 60.4582 75.6076 60.4582 75.1235C60.4582 74.0926 62.9923 67.318 63.6043 62.7596C63.6779 62.2115 62.9958 61.993 62.6876 62.4389C61.2105 64.5759 59.7215 66.8613 55.6706 66.9157C48.1234 67.0172 43.7757 59.7041 46.1497 53.0496C47.3137 49.7867 63.3245 28 65.5 28C67.6754 28 83.6864 49.7867 84.8503 53.0496C87.2243 59.7041 82.8766 67.0172 75.3294 66.9157C71.2785 66.8613 69.7895 64.5759 68.3124 62.4389C68.0042 61.993 67.3221 62.2115 67.3957 62.7596C68.0077 67.318 70.5418 74.0926 70.5418 75.1235C70.5418 75.6076 70.1412 76 69.647 76H61.353Z" fill="#211C1D"/>
<path d="M61.353 220C60.8588 220 60.4582 220.392 60.4582 220.877C60.4582 221.907 62.9923 228.682 63.6043 233.24C63.6779 233.789 62.9958 234.007 62.6876 233.561C61.2105 231.424 59.7215 229.139 55.6706 229.084C48.1234 228.983 43.7757 236.296 46.1497 242.95C47.3137 246.213 63.3245 268 65.5 268C67.6754 268 83.6864 246.213 84.8503 242.95C87.2243 236.296 82.8766 228.983 75.3294 229.084C71.2785 229.139 69.7895 231.424 68.3124 233.561C68.0042 234.007 67.3221 233.789 67.3957 233.24C68.0077 228.682 70.5418 221.907 70.5418 220.877C70.5418 220.392 70.1412 220 69.647 220H61.353Z" fill="#211C1D"/>
<path d="M149.353 76C148.859 76 148.458 75.6076 148.458 75.1235C148.458 74.0926 150.992 67.318 151.604 62.7596C151.678 62.2115 150.996 61.993 150.688 62.4389C149.211 64.5759 147.721 66.8613 143.671 66.9157C136.123 67.0172 131.776 59.7041 134.15 53.0496C135.314 49.7867 151.325 28 153.5 28C155.675 28 171.686 49.7867 172.85 53.0496C175.224 59.7041 170.877 67.0172 163.329 66.9157C159.279 66.8613 157.789 64.5759 156.312 62.4389C156.004 61.993 155.322 62.2115 155.396 62.7596C156.008 67.318 158.542 74.0926 158.542 75.1235C158.542 75.6076 158.141 76 157.647 76H149.353Z" fill="#211C1D"/>
<path d="M149.353 220C148.859 220 148.458 220.392 148.458 220.877C148.458 221.907 150.992 228.682 151.604 233.24C151.678 233.789 150.996 234.007 150.688 233.561C149.211 231.424 147.721 229.139 143.671 229.084C136.123 228.983 131.776 236.296 134.15 242.95C135.314 246.213 151.325 268 153.5 268C155.675 268 171.686 246.213 172.85 242.95C175.224 236.296 170.877 228.983 163.329 229.084C159.279 229.139 157.789 231.424 156.312 233.561C156.004 234.007 155.322 233.789 155.396 233.24C156.008 228.682 158.542 221.907 158.542 220.877C158.542 220.392 158.141 220 157.647 220H149.353Z" fill="#211C1D"/>
</g>
</g>
<defs>
<filter id="filter0_d_18_638" x="0" y="0" width="219" height="304" filterUnits="userSpaceOnUse" color-interpolation-filters="sRGB">
<feFlood flood-opacity="0" result="BackgroundImageFix"/>
<feColorMatrix in="SourceAlpha" type="matrix" values="0 0 0 0 0 0 0 0 0 0 0 0 0 0 0 0 0 0 127 0" result="hardAlpha"/>
<feOffset dy="4"/>
<feGaussianBlur stdDeviation="4"/>
<feComposite in2="hardAlpha" operator="out"/>
<feColorMatrix type="matrix" values="0 0 0 0 0.614771 0 0 0 0 0.70094 0 0 0 0 0.806257 0 0 0 1 0"/>
<feBlend mode="normal" in2="BackgroundImageFix" result="effect1_dropShadow_18_638"/>
<feBlend mode="normal" in="SourceGraphic" in2="effect1_dropShadow_18_638" result="shape"/>
</filter>
<clipPath id="clip0_18_638">
<rect x="8" y="4" width="203" height="288" rx="10" fill="white"/>
</clipPath>
</defs>
</svg>

<svg xmlns="http://www.w3.org/2000/svg" width="219" height="304" fill="none" viewBox="0 0 219 304"><g filter="url(#a)"><g clip-path="url(#b)"><rect width="203" height="288" x="8" y="4" fill="#fff" rx="10"/><path fill="#211c1d" d="M28.463 42.378v-4.063h-10.53c-1.561 0-2.602-.821-2.602-2.143 0-.74.24-1.441.94-2.722 2.863-5.065 4.665-7.948 9.21-14.755 1.18-1.741 2.101-2.342 3.483-2.342 1.822 0 2.843 1.041 2.843 2.903v15.996h2.082c1.12 0 1.781.56 1.781 1.541 0 .96-.64 1.522-1.781 1.522h-2.082v4.063c0 1.162-.6 1.822-1.682 1.822-1.061 0-1.662-.66-1.662-1.822m-9.77-7.126h9.77V19.755h-.18c-3.403 5.025-6.967 10.75-9.59 15.295zM24.238 72a.373.373 0 0 1-.38-.365c0-.43 1.076-3.253 1.336-5.152.032-.228-.258-.32-.39-.133-.627.89-1.26 1.842-2.981 1.865-3.208.042-5.056-3.005-4.047-5.778C18.271 61.077 25.076 52 26 52s7.73 9.078 8.224 10.437c1.009 2.773-.839 5.82-4.046 5.778-1.722-.023-2.355-.975-2.983-1.865-.13-.186-.42-.095-.39.133.26 1.9 1.338 4.722 1.338 5.152 0 .201-.17.365-.38.365zM190.537 253.622v4.064h10.53c1.561 0 2.602.82 2.602 2.142 0 .74-.24 1.441-.94 2.722-2.863 5.065-4.665 7.948-9.209 14.755-1.182 1.741-2.103 2.342-3.484 2.342-1.822 0-2.843-1.041-2.843-2.903v-15.995h-2.082c-1.121 0-1.781-.561-1.781-1.542 0-.961.64-1.521 1.781-1.521h2.082v-4.064c0-1.162.601-1.822 1.682-1.822 1.061 0 1.662.66 1.662 1.822m9.769 7.127h-9.769v15.495h.18c3.403-5.025 6.967-10.751 9.589-15.295zM194.762 224c.211 0 .381.164.381.365 0 .43-1.077 3.252-1.337 5.152-.032.228.258.319.389.133.628-.89 1.261-1.842 2.983-1.865 3.207-.042 5.055 3.005 4.046 5.778C200.729 234.922 193.925 244 193 244s-7.729-9.078-8.224-10.437c-1.009-2.773.839-5.82 4.047-5.778 1.721.023 2.354.975 2.982 1.865.131.186.421.095.389-.133-.26-1.9-1.337-4.722-1.337-5.152 0-.201.17-.365.381-.365zM61.353 76a.886.886 0 0 1-.895-.876c0-1.031 2.534-7.806 3.146-12.364.074-.548-.608-.767-.916-.321-1.477 2.137-2.967 4.422-7.017 4.477-7.548.101-11.895-7.212-9.521-13.866C47.314 49.787 63.325 28 65.5 28s18.186 21.787 19.35 25.05c2.374 6.654-1.973 13.967-9.52 13.866-4.052-.055-5.54-2.34-7.018-4.477-.308-.446-.99-.227-.916.32.612 4.559 3.146 11.334 3.146 12.365 0 .484-.4.876-.895.876zM61.353 220a.886.886 0 0 0-.895.877c0 1.03 2.534 7.805 3.146 12.363.074.549-.608.767-.916.321-1.477-2.137-2.967-4.422-7.017-4.477-7.548-.101-11.895 7.212-9.521 13.866C47.314 246.213 63.325 268 65.5 268s18.186-21.787 19.35-25.05c2.374-6.654-1.973-13.967-9.52-13.866-4.052.055-5.54 2.34-7.018 4.477-.308.446-.99.228-.916-.321.612-4.558 3.146-11.333 3.146-12.363 0-.485-.4-.877-.895-.877zM149.353 76a.886.886 0 0 1-.895-.876c0-1.031 2.534-7.806 3.146-12.364.074-.548-.608-.767-.916-.321-1.477 2.137-2.967 4.422-7.017 4.477-7.548.101-11.895-7.212-9.521-13.866C135.314 49.787 151.325 28 153.5 28s18.186 21.787 19.35 25.05c2.374 6.654-1.973 13.967-9.521 13.866-4.05-.055-5.54-2.34-7.017-4.477-.308-.446-.99-.227-.916.32.612 4.559 3.146 11.334 3.146 12.365a.886.886 0 0 1-.895.876zM149.353 220a.886.886 0 0 0-.895.877c0 1.03 2.534 7.805 3.146 12.363.074.549-.608.767-.916.321-1.477-2.137-2.967-4.422-7.017-4.477-7.548-.101-11.895 7.212-9.521 13.866 1.164 3.263 17.175 25.05 19.35 25.05s18.186-21.787 19.35-25.05c2.374-6.654-1.973-13.967-9.521-13.866-4.05.055-5.54 2.34-7.017 4.477-.308.446-.99.228-.916-.321.612-4.558 3.146-11.333 3.146-12.363a.886.886 0 0 0-.895-.877z"/></g></g><defs><clipPath id="b"><rect width="203" height="288" x="8" y="4" fill="#fff" rx="10"/></clipPath><filter id="a" width="219" height="304" x="0" y="0" color-interpolation-filters="sRGB" filterUnits="userSpaceOnUse"><feFlood flood-opacity="0" result="BackgroundImageFix"/><feColorMatrix in="SourceAlpha" result="hardAlpha" values="0 0 0 0 0 0 0 0 0 0 0 0 0 0 0 0 0 0 127 0"/><feOffset dy="4"/><feGaussianBlur stdDeviation="4"/><feComposite in2="hardAlpha" operator="out"/><feColorMatrix values="0 0 0 0 0.614771 0 0 0 0 0.70094 0 0 0 0 0.806257 0 0 0 1 0"/><feBlend in2="BackgroundImageFix" result="effect1_dropShadow_18_638"/><feBlend in="SourceGraphic" in2="effect1_dropShadow_18_638" result="shape"/></filter></defs></svg>
